X: 1
T: TIBBIE INGLIS' FANCY -- FLING
B: Ryan's Mammoth Collection of Fiddle Tunes
R: fling
M: C|
L: 1/8
Z: Contributed 20080603 by John Chambers jc:jc.tzo.net
K: D
|: (vD>.F)(uA>.B) (A>.F) (A>.d) |"SEGUE"D>F A>B A>FE2 \
| D>FA>B A>F A>d | f>d"4"e>c d2d2 H:|
|: vf>de>f g>fe>d | c>Ae>A f>Ae>A | f>de>f g>fe>d |1 c>AB>c d2d>e :|2 c>AB>c d2d2 "D.C."[|]|]
